T: Lucy Farr's
M: 4/4
L: 1/8
K: Gmaj
|:G2 G2 G2 G2|F>GA>F G2 D2|B2 B2 B2 B2|A>Bc>A B2 G2|
e2 e2 d3 B|c2 c2 B3 G|F2 A2 A3 G|F>DE>F G>AB>d|
e2 e2 d3 B|c2 c2 B3 G|E2 A2 A3 G|F>DE>F G2 D2:|
